home/.icons/Gruvbox-Plus-Dark/status/24/trophy-bronze.svg

<svg xmlns="http://www.w3.org/2000/svg" width="24" height="24" version="1">
 <path d="M 17.329157,2.5007137 A 4.9150797,5.5761229 20.398439 0 0 12.779305,5.4441038 4.9150797,5.5761229 20.398439 0 0 14.31936,12.869963 4.9150797,5.5761229 20.398439 0 0 21.2208,10.555485 4.9150797,5.5761229 20.398439 0 0 19.680745,3.1296266 4.9150797,5.5761229 20.398439 0 0 17.329157,2.5007137 Z m 0.04004,2.034201 c 0.47909,-0.012259 0.943868,0.1037101 1.346694,0.3476599 1.289045,0.7806395 1.810562,2.788031 0.792977,4.6367669 -1.017586,1.8487365 -2.93561,2.3783125 -4.224654,1.5976735 C 13.99517,10.336376 13.472676,8.3289835 14.490262,6.4802476 15.189851,5.2092418 16.315199,4.5618832 17.369198,4.5349147 Z" style="opacity:0.2"/>
 <path d="M 6.6708427,2.5007137 A 5.5761229,4.9150797 69.601561 0 0 4.3192555,3.1296266 5.5761229,4.9150797 69.601561 0 0 2.7792003,10.555485 5.5761229,4.9150797 69.601561 0 0 9.6806397,12.869963 5.5761229,4.9150797 69.601561 0 0 11.220695,5.4441038 5.5761229,4.9150797 69.601561 0 0 6.6708427,2.5007137 Z m -0.041015,2.034201 C 7.6836868,4.5616305 8.8091736,5.2092418 9.5087634,6.4802476 10.526349,8.3289835 10.004831,10.336376 8.7157866,11.117015 7.4267421,11.897654 5.5087185,11.368078 4.4911328,9.5193415 3.4735465,7.6706056 3.995065,5.6641906 5.2841092,4.8835512 5.6869359,4.6396013 6.1507992,4.5227713 6.6298277,4.5349147 Z" style="opacity:0.2"/>
 <rect style="opacity:0.2" width="14" height="2" x="5" y="20.5" rx="1" ry="1"/>
 <path style="fill:#d65d0e" d="M 17.329157,2.0007617 A 4.9150797,5.5761229 20.398439 0 0 12.779305,4.944152 4.9150797,5.5761229 20.398439 0 0 14.31936,12.370011 4.9150797,5.5761229 20.398439 0 0 21.2208,10.055534 4.9150797,5.5761229 20.398439 0 0 19.680745,2.6296746 4.9150797,5.5761229 20.398439 0 0 17.329157,2.0007617 Z m 0.04004,2.034201 c 0.47909,-0.012259 0.943868,0.1037101 1.346694,0.3476599 1.289045,0.7806397 1.810562,2.7880313 0.792977,4.6367671 -1.017586,1.8487363 -2.93561,2.3783133 -4.224654,1.5976733 C 13.99517,9.8364238 13.472676,7.8290317 14.490262,5.9802959 15.189851,4.7092897 16.315199,4.0619312 17.369198,4.0349627 Z"/>
 <path style="fill:#d65d0e" d="M 6.6708427,2.0007617 A 5.5761229,4.9150797 69.601561 0 0 4.3192555,2.6296746 5.5761229,4.9150797 69.601561 0 0 2.7792003,10.055534 5.5761229,4.9150797 69.601561 0 0 9.6806397,12.370011 5.5761229,4.9150797 69.601561 0 0 11.220695,4.944152 5.5761229,4.9150797 69.601561 0 0 6.6708427,2.0007617 Z m -0.041015,2.034201 C 7.6836868,4.0616785 8.8091736,4.7092898 9.5087634,5.9802959 10.526349,7.8290317 10.004831,9.8364238 8.7157866,10.617063 7.4267421,11.397703 5.5087185,10.868126 4.4911328,9.0193897 3.4735465,7.1706539 3.995065,5.1642388 5.2841092,4.3835992 5.6869359,4.1396493 6.1507992,4.0228193 6.6298277,4.0349627 Z"/>
 <rect style="fill:#d65d0e" width="4" height="9" x="10" y="12"/>
 <path d="M 5.9999999,3.9615385 V 8.3461539 C 5.9999999,10.512809 8.6862913,15.5 12,15.5 c 3.313709,0 6,-4.987191 6,-7.1538461 V 3.9615385 Z" style="opacity:0.2"/>
 <path style="fill:#fe8019" d="M 5.9999999,3.4615385 V 7.8461539 C 5.9999999,10.012809 8.6862913,15 12,15 c 3.313709,0 6,-4.987191 6,-7.1538461 V 3.4615385 Z"/>
 <rect width="16" height="2" x="4" y="2.5" rx="1" ry="1" style="opacity:0.2"/>
 <rect style="fill:#fe8019" width="16" height="2" x="4" y="2" rx="1" ry="1"/>
 <path style="fill:#fe8019" d="M 12,17.999953 A 4.5000472,3.0000313 0 0 0 7.4999529,20.999984 H 16.500047 A 4.5000472,3.0000313 0 0 0 12,17.999953 Z"/>
 <rect width="14" height="2" x="5" y="20" rx="1" ry="1" style="fill:#504945"/>
 <path style="opacity:0.2;fill:#f9f9f9" d="m 4.9999267,1.9997852 c -0.5540058,0 -1.0000105,0.4460046 -1.0000105,1.0000104 0,0.086918 0.014505,0.1697065 0.035157,0.2500027 C 4.1460496,2.8182972 4.5328392,2.4997904 4.9999267,2.4997904 H 19.000073 c 0.467088,0 0.853877,0.3185068 0.964855,0.7500079 0.02065,-0.080296 0.03516,-0.1630843 0.03516,-0.2500027 0,-0.5540058 -0.446005,-1.0000104 -1.000011,-1.0000104 z"/>
</svg>

<svg width="24" height="24" version="1" xmlns="http://www.w3.org/2000/svg">
  <path d="m17.329 2.5007a4.9151 5.5761 20.398 0 0-4.5499 2.9434 4.9151 5.5761 20.398 0 0 1.5401 7.4259 4.9151 5.5761 20.398 0 0 6.9014-2.3145 4.9151 5.5761 20.398 0 0-1.5401-7.4259 4.9151 5.5761 20.398 0 0-2.3516-0.62891zm0.04004 2.0342c0.47909-0.012259 0.94387 0.10371 1.3467 0.34766 1.289 0.78064 1.8106 2.788 0.79298 4.6368-1.0176 1.8487-2.9356 2.3783-4.2247 1.5977s-1.8115-2.788-0.79395-4.6368c0.69959-1.271 1.8249-1.9184 2.8789-1.9453z" fill="#282828" opacity=".2"/>
  <path d="m6.6708 2.5007a5.5761 4.9151 69.602 0 0-2.3516 0.62891 5.5761 4.9151 69.602 0 0-1.5401 7.4259 5.5761 4.9151 69.602 0 0 6.9014 2.3145 5.5761 4.9151 69.602 0 0 1.5401-7.4259 5.5761 4.9151 69.602 0 0-4.5499-2.9434zm-0.041015 2.0342c1.0539 0.026716 2.1793 0.67433 2.8789 1.9453 1.0176 1.8487 0.49607 3.8561-0.79298 4.6368-1.289 0.78064-3.2071 0.25106-4.2247-1.5977-1.0176-1.8487-0.49607-3.8552 0.79298-4.6358 0.40283-0.24395 0.86669-0.36078 1.3457-0.34864z" fill="#282828" opacity=".2"/>
  <rect x="5" y="20.5" width="14" height="2" rx="1" ry="1" fill="#282828" opacity=".2"/>
  <path d="m17.329 2.0008a4.9151 5.5761 20.398 0 0-4.5499 2.9434 4.9151 5.5761 20.398 0 0 1.5401 7.4259 4.9151 5.5761 20.398 0 0 6.9014-2.3145 4.9151 5.5761 20.398 0 0-1.5401-7.4259 4.9151 5.5761 20.398 0 0-2.3516-0.62891zm0.04004 2.0342c0.47909-0.012259 0.94387 0.10371 1.3467 0.34766 1.289 0.78064 1.8106 2.788 0.79298 4.6368-1.0176 1.8487-2.9356 2.3783-4.2247 1.5977-1.289-0.78064-1.8115-2.788-0.79395-4.6368 0.69959-1.271 1.8249-1.9184 2.8789-1.9453z" fill="#d65d0e"/>
  <path d="m6.6708 2.0008a5.5761 4.9151 69.602 0 0-2.3516 0.62891 5.5761 4.9151 69.602 0 0-1.5401 7.4259 5.5761 4.9151 69.602 0 0 6.9014 2.3145 5.5761 4.9151 69.602 0 0 1.5401-7.4259 5.5761 4.9151 69.602 0 0-4.5499-2.9434zm-0.041015 2.0342c1.0539 0.026716 2.1793 0.67433 2.8789 1.9453 1.0176 1.8487 0.49607 3.8561-0.79298 4.6368-1.289 0.78064-3.2071 0.25106-4.2247-1.5977-1.0176-1.8487-0.49607-3.8552 0.79298-4.6358 0.40283-0.24395 0.86669-0.36078 1.3457-0.34864z" fill="#d65d0e"/>
  <rect x="10" y="12" width="4" height="9" fill="#d65d0e"/>
  <path d="m6 3.9615v4.3846c0 2.1667 2.6863 7.1538 6 7.1538 3.3137 0 6-4.9872 6-7.1538v-4.3846z" fill="#282828" opacity=".2"/>
  <path d="m6 3.4615v4.3846c0 2.1667 2.6863 7.1538 6 7.1538 3.3137 0 6-4.9872 6-7.1538v-4.3846z" fill="#fe8019"/>
  <rect x="4" y="2.5" width="16" height="2" rx="1" ry="1" fill="#282828" opacity=".3"/>
  <rect x="4" y="2" width="16" height="2" rx="1" ry="1" fill="#fe8019"/>
  <path d="m12 18a4.5 3 0 0 0-4.5 3h9.0001a4.5 3 0 0 0-4.5-3z" fill="#fe8019"/>
  <rect x="5" y="20" width="14" height="2" rx="1" ry="1" fill="#504945"/>
  <path d="m4.9999 1.9998c-0.55401 0-1 0.446-1 1 0 0.086918 0.014505 0.16971 0.035157 0.25 0.11098-0.4315 0.49777-0.75001 0.96485-0.75001h14c0.46709 0 0.85388 0.31851 0.96486 0.75001 0.02065-0.080296 0.03516-0.16308 0.03516-0.25 0-0.55401-0.446-1-1-1z" fill="#ebdbb2" opacity=".2"/>
</svg>
